assets/img/team-shape.svg

<?xml version="1.0" encoding="utf-8"?>
<!-- Generator: Adobe Illustrator 25.0.0, SVG Export Plug-In . SVG Version: 6.00 Build 0)  -->
<svg version="1.1" id="Capa_1" xmlns="http://www.w3.org/2000/svg" xmlns:xlink="http://www.w3.org/1999/xlink" x="0px" y="0px"
	 viewBox="0 0 1440 320" style="enable-background:new 0 0 1440 320;" xml:space="preserve">
<style type="text/css">
	.st0{fill:#F7941D;}
</style>
<path class="st0" d="M0,160l34.3,10.7C68.6,181,137,203,206,202.7c68.3,0.3,137-21.7,205-48C480,128,549,96,617,112
	c68.7,16,137,80,206,101.3c68.4,21.7,137-0.3,206-16c68.1-16.3,137-26.3,205-26.6c68.9,0.3,137,10.3,172,16l34,5.3v128h-34.3
	c-34.3,0-102.7,0-171.7,0c-68.3,0-137,0-205,0c-69,0-138,0-206,0c-68.7,0-137,0-206,0c-68.4,0-137,0-206,0c-68.1,0-137,0-205,0
	c-68.9,0-137,0-172,0H0V160z"/>
</svg>

<svg xmlns="http://www.w3.org/2000/svg" viewBox="0 0 1440 320"><path fill="#fff" fill-opacity="1" d="M0,160L34.3,170.7C68.6,181,137,203,206,202.7C274.3,203,343,181,411,154.7C480,128,549,96,617,112C685.7,128,754,192,823,213.3C891.4,235,960,213,1029,197.3C1097.1,181,1166,171,1234,170.7C1302.9,171,1371,181,1406,186.7L1440,192L1440,320L1405.7,320C1371.4,320,1303,320,1234,320C1165.7,320,1097,320,1029,320C960,320,891,320,823,320C754.3,320,686,320,617,320C548.6,320,480,320,411,320C342.9,320,274,320,206,320C137.1,320,69,320,34,320L0,320Z"></path></svg>
